svg/u1f43d.svg

<svg viewBox="0 0 128 128" xmlns="http://www.w3.org/2000/svg">
  <path d="M11.92,73.6c0,0-6.38,3.07-6.23,8.82c0.17,6.57,3.36,29.71,30.28,33.74 c18.51,2.77,28.55-5.88,28.55-5.88s9.21,8.44,26.3,6.75c22.66-2.25,32.18-25.09,31.31-33.91c-0.45-4.59-3.98-7.44-6.57-5.88 c-2.6,1.56-51.21,24.57-51.21,24.57L11.92,73.6z" fill="#F17FAE"/>
  <path d="M64.52,16.16c-9.18,0.18-9.86,5.54-21.97,11.42c-6.82,3.31-32.7,14.88-36.68,37.54 s4.5,36.33,24.57,43.25c20.07,6.92,34.78-3.98,34.78-3.98s22.02,12.48,41,1.38c17.47-10.21,19.15-25.06,14.71-42.21 c-3.81-14.71-19.03-29.24-33.22-35.12C74.08,22.8,73.52,15.99,64.52,16.16z" fill="#FFA8A7"/>
  <path d="M100.36,74.12c0,8.41-4.7,15.05-14.04,14.71c-9.34-0.35-13.25-6.3-13.25-14.71 s1.69-20.77,14.11-19.72C99.47,55.44,100.36,65.71,100.36,74.12z" fill="#EB81AA"/>
  <path d="M54.51,73.95c0,8.41-4.7,15.05-14.04,14.71c-9.34-0.35-13.25-6.3-13.25-14.71s0.8-19.86,13.42-19.2 C53.97,55.44,54.51,65.54,54.51,73.95z" fill="#EB81AA"/>
  <path d="M100.4,69.8c0,9.36-2.74,15.02-13.74,15.92c-8.48,0.69-13.3-6.55-13.3-15.92s3.27-17.12,13.52-16.96 C97.74,53.01,100.4,60.43,100.4,69.8z" fill="#EA4B8D"/>
  <path d="M55,69.62c0,9.36-4.04,16.69-15.05,16.09c-9.52-0.52-13.15-7.07-13.15-16.44s3.63-16.44,13.88-16.44 C51.02,52.84,55,60.26,55,69.62z" fill="#EA4B8D"/>
</svg>

<svg viewBox="0 0 128 128" xmlns="http://www.w3.org/2000/svg">
  <defs/>
  <path d="M11.92,73.6 C11.92,73.6 5.54,76.67 5.69,82.42 C5.86,88.99 9.05,112.13 35.97,116.16 C54.48,118.93 64.52,110.28 64.52,110.28 C64.52,110.28 73.73,118.72 90.82,117.03 C113.48,114.78 123,91.94 122.13,83.12 C121.68,78.53 118.15,75.68 115.56,77.24 C112.96,78.8 64.35,101.81 64.35,101.81 L11.92,73.6 Z" fill="#F17FAE"/>
  <path d="M64.52,16.16 C55.34,16.34 54.66,21.7 42.55,27.58 C35.73,30.89 9.85,42.46 5.87,65.12 C1.89,87.78 10.37,101.45 30.44,108.37 C50.51,115.29 65.22,104.39 65.22,104.39 C65.22,104.39 87.24,116.87 106.22,105.77 C123.69,95.56 125.37,80.71 120.93,63.56 C117.12,48.85 101.9,34.32 87.71,28.44 C74.08,22.8 73.52,15.99 64.52,16.16 Z" fill="#FFA8A7"/>
  <path d="M100.36,74.12 C100.36,82.53 95.66,89.17 86.32,88.83 C76.98,88.48 73.07,82.53 73.07,74.12 C73.07,65.71 74.76,53.35 87.18,54.4 C99.47,55.44 100.36,65.71 100.36,74.12 Z" fill="#EB81AA"/>
  <path d="M54.51,73.95 C54.51,82.36 49.81,89 40.47,88.66 C31.13,88.31 27.22,82.36 27.22,73.95 C27.22,65.54 28.02,54.09 40.64,54.75 C53.97,55.44 54.51,65.54 54.51,73.95 Z" fill="#EB81AA"/>
  <path d="M100.4,69.8 C100.4,79.16 97.66,84.82 86.66,85.72 C78.18,86.41 73.36,79.17 73.36,69.8 C73.36,60.43 76.63,52.68 86.88,52.84 C97.74,53.01 100.4,60.43 100.4,69.8 Z" fill="#EA4B8D"/>
  <path d="M55,69.62 C55,78.98 50.96,86.31 39.95,85.71 C30.43,85.19 26.8,78.64 26.8,69.27 C26.8,59.9 30.43,52.83 40.68,52.83 C51.02,52.84 55,60.26 55,69.62 Z" fill="#EA4B8D"/>
</svg>
